source/img/icon-feature-rocket.svg

<svg height="24" viewBox="0 0 55 24" width="55" xmlns="http://www.w3.org/2000/svg"><g fill="#63d1bb" fill-rule="evenodd" transform=""><path d="m40.844 6.098c-3.647-.971-7.839-1.667-12.359-1.666-2.891.001-5.457.243-7.71.623l-6.784-4.668-13.456.005 5.811 6.184h8.447c-4.58 1.598-6.759 3.515-6.759 3.515l.002 3.777s2.313 1.912 6.931 3.518l-8.623-.005-5.811 6.188 13.455.002 6.816-4.692c2.261.398 4.822.647 7.681.648 4.522-.001 8.712-.697 12.36-1.667-1.176-1.775-1.915-3.743-1.918-5.877.003-2.141.738-4.112 1.917-5.885z"/><path d="m44.267 7.132c-1.284 1.605-1.969 3.25-1.965 4.84-.007 1.597.677 3.238 1.968 4.847 6.399-2.162 10.419-4.841 10.419-4.841s-4.019-2.68-10.422-4.846z"/></g></svg>

<?xml version="1.0" encoding="UTF-8"?>
<svg width="55px" height="24px" viewBox="0 0 55 24" version="1.1" xmlns="http://www.w3.org/2000/svg" xmlns:xlink="http://www.w3.org/1999/xlink">
    <!-- Generator: Sketch 52.2 (67145) - http://www.bohemiancoding.com/sketch -->
    <title>icon-feature-rocket</title>
    <desc>Created with Sketch.</desc>
    <g id="Mishka-Mobile" stroke="none" stroke-width="1" fill="none" fill-rule="evenodd">
        <g id="Mishka-Index-Mobile" transform="translate(-24.000000, -2294.000000)" fill="#63D1BB">
            <g id="about" transform="translate(0.000000, 1736.000000)">
                <g id="icon-feature-rocket" transform="translate(24.000000, 558.000000)">
                    <path d="M40.844,6.098 C37.197,5.127 33.005,4.431 28.485,4.432 C25.594,4.433 23.028,4.675 20.775,5.055 L13.991,0.387 L0.535,0.392 L6.346,6.576 L14.793,6.576 C10.213,8.174 8.034,10.091 8.034,10.091 L8.036,13.868 C8.036,13.868 10.349,15.78 14.967,17.386 L6.344,17.381 L0.533,23.569 L13.988,23.571 L20.804,18.879 C23.065,19.277 25.626,19.526 28.485,19.527 C33.007,19.526 37.197,18.83 40.845,17.86 C39.669,16.085 38.93,14.117 38.927,11.983 C38.93,9.842 39.665,7.871 40.844,6.098 Z" id="Shape"></path>
                    <path d="M44.267,7.132 C42.983,8.737 42.298,10.382 42.302,11.972 C42.295,13.569 42.979,15.21 44.27,16.819 C50.669,14.657 54.689,11.978 54.689,11.978 C54.689,11.978 50.67,9.298 44.267,7.132 Z" id="Shape"></path>
                </g>
            </g>
        </g>
    </g>
</svg>
